X:1
T:Introibo ad altare
T:Heinrich Isaac (c.1450-1517) Choralis Constantinus 1550
T:Communion for Sexagesima (or OT 5A, 5C)
T:Introibo ad altare
T:Copyright © 2017 CPDL Please forward corrections to RichardMix@hotmail.com
T:I wil go in to the altar of God: To God which maketh my youth ioyful. (Psalm 43:4 (xxxxii), Douay transl. 1635)
T:Copyright © 2017 CPDL Please forward corrections to RichardMix@hotmail.com
T:Copyright © 2017 CPDL Please forward corrections to RichardMix@hotmail.com
C:Heinrich Isaac (c.1450-1517)
C:Choralis Constantinus 1550
Z:Communion for Sexagesima
Z:(or OT 5A, 5C)
Z:Copyright © 2017 CPDL
Z:Please forward corrections to RichardMix@hotmail.com
%%score [ 1 2 3 4 ]
L:1/8
M:4/4
K:C
V:1 treble nm="P1" snm="S."
V:2 treble nm="P2" snm="A."
V:3 treble-8 transpose=-12 nm="P3" snm="T."
V:4 bass nm="P4" snm="B."
V:1
 [FAd]2 | G4 c2 x16 G8 ||[M:2/2] G8 A6 B2 | c8 z4 c4 | B6 c2 d8 | c4 A8"^#" ^G4 | A16 | z8 A8 | %8
w: |In- tro- bo|ad _ _|_ al-|ta- * *||re|De-|
 d8 c8 | c8 d4 c4- | c4 B2 A2 G4 A4- | A2 G2 G8 F4 | G8 z8 | G8 G8 | A4 c8 B4 | c8 z8 | A8 c8 | %17
w: ||||i|ad De-||um,|qui _|
 A8 G8 | A8 c8 | G6 F2 G4 A4- | A4 G2 F2 G8 | F16 | z8 G8 | A8 G8 | G8 A4 c4- | c2 B2 A8 G4 | A16 | %27
w: lae- *|ti- *|fi- * * *||cat|ju-|ven- *|tu- * *||tem|
 z4 G4 A4 B4 | c6 B2 A2 G2 A4- | A2 G2 G8"^#" ^F4 | G2 x30 |] %31
w: me- * *|||am.|
V:2
 [G,EG]2 | x30 ||[M:2/2] D8 F8 | G8 G8 | G8 F4 G4 | E4 F4 E8 | z4 E8 F4- | F2 E2 F2 G2 E8 | %8
w: ||Ad _|al- ta-|re _ _|_ _ _|De- *||
 D4 B,4 A,8 | z4 A,4 B,4 C4 | G,4 G4 E4 F4- | F2 E2 C4 D8 | z4 E12 | D4 C4 D4 E4 | F4 G12 | %15
w: * * i,|De- * *||* * * i|ad|_ _ _ _|* De-|
 E8 z4 E4- | E4 F4 G8 | F8 E8 | C8 E8 | z4 E6 D2 C2 B,2 | A,4 F4 E8 | A,4 D4 B,4 A,2 G,2 | %22
w: um, qui|_ _ lae-|||ti- * * *|* * fi-||
 A,8 G,4 D4- | D2 C2 A,4 B,4 C4 | D4 G4 F4 E4- | E4 D4 E8 | z4 E8 F4- | F4 E2 D2 C4 F4 | %28
w: * cat ju-|* * * ven- *|tu- * * *|* * tem|me- *||
 G6 F2 E2 D2 F4 | D4 E4 C8 | D2 x30 |] %31
w: ||am.|
V:3
 [Gcf]2 | x30 ||[M:2/2] G8 c6 d2 | e8 z4 e4 | d12 c2 B2 | c4 d4 B8 | B8 z4 A4- | A4 d8 c4 | %8
w: ||Ad _ _|_ al-|ta- * *||re De-||
 d4 f8 e2 d2 | e8 d4 e4- | e4 d2 c2 B4 c4 | d4 G4 A8 | z4 G4 G6 A2 | B4 c8 B4 | c4 e4 d8 | c16 | %16
w: |||* * i|ad De- *|||um,|
 z16 | A8 c8 | A8 G8 | c8 B4 A4- | A4 d8 c4 | d16- | d8 z8 | d8 e8 | d8 d4 c4 | A8 B8 | A8 z4 A4 | %27
w: |qui _|lae- *|ti- * *|* * fi-|cat|_|ju- ven-|* tu- *|tem _|_ me-|
 B4 c8 d4 | e6 d2 c2 B2 A4 | B4 c4 A8 | G2 x30 |] %31
w: |||am.|
V:4
 [G,,E,A,]2 | x30 ||[M:2/2] G,8 F,8 | E,4 C,6 D,2 E,2 F,2 | G,8 z4 G,4 | A,4 D,4 E,8 | %6
w: ||Ad _|_ _ _ _ _|* al-|ta- * *|
 A,,4 A,6 G,2 F,2 E,2 | F,4 C,4 A,8 | D,8 A,,8- | A,,8 z4 C,4- | C,2 D,2 E,2 F,2 G,4 F,4 | %11
w: re De- * * *||* i|_ ad|_ _ _ _ _ _|
 D,4 E,4 D,8 | E,4 C,6 D,2 E,2 F,2 | G,4 C,4 G,8 | F,4 C,4 G,8 | A,8 F,4 A,4- | A,2 G,2 F,8 E,4 | %17
w: ||* De- um,|_ _ _|qui _ _|_ _ _ _|
 F,8 C,8 | z8 C,8 | C,6 D,2 E,4 F,4- | F,4 E,2 D,2 E,8 | D,16- | D,8 z4 G,4- | G,4 F,4 E,4 C,4 | %24
w: |lae-|ti- * * *|* * * fi-|cat|_ ju-|* ven- tu- *|
 G,8 z4 A,4- | A,2 G,2 F,4 E,8 | A,,6 B,,2 C,4 D,4- | D,4 E,4 F,4 D,4 | C,8 z4 F,4 | G,4 C,4 D,8 | %30
w: tem me-||||||
 G,,2 x30 |] %31
w: am.|

